X:1
T:I Will Sing of My Redeemer
T:Text: Philip P. Bliss, 1876 Tune: Rowland H. Prichard, 1830
T:87 87 D HYFRYDOL www.hymnary.org/text/i_will_sing_of_my_redeemer
T:I Will Sing of My Redeemer
T:This hymn is in the public domain. You may freely use this score for personal and congregational worship. If you reproduce the score, please credit Hymnary.org as the source. 
T:This hymn is in the public domain. You may freely use this score for personal and congregational worship. If you reproduce the score, please credit Hymnary.org as the source. 
T:This hymn is in the public domain. You may freely use this score for personal and congregational worship. If you reproduce the score, please credit Hymnary.org as the source. 
Z:This hymn is in the public domain. You may freely use this score for personal and congregational worship. If you reproduce the score, please credit Hymnary.org as the source.
%%score ( 1 2 ) ( 3 4 5 )
L:1/8
M:3/4
K:F
V:1 treble nm="SOPRANO ALTO" snm="S. A."
V:2 treble 
V:3 bass nm="TENOR BASS" snm="T. B."
V:4 bass 
V:5 bass 
V:1
"^1""^2""^3" F4 G2 | (F3 G) A2 | B4 A2 | (G2 F2) G2 | c4 B2 | A4 A2 | (G2 F2) G2 | F6 | F4 G2 | %9
w: I will|sing * of|my Re-|deem- * er|and his|won- drous|love * to|me;|on the|
w: I will|tell * the|won- drous|sto- * ry,|how my|lost es-|tate * to|save,|in his|
w: I will|sing * of|my Re-|deem- * er|and his|heav- enly|love * for|me;|he from|
 (F3 G) A2 | B4 A2 | (G2 F2) G2 | c4 B2 |1 A4 A2 | (G2 F2) G2 | F6 | c4 c2 | (c2 B2) A2 | B4 B2 | %19
w: cru- * el|cross he|suf- * fered,|from the|curse to|set * me|free.|Sing, O|sing * of|my Re-|
w: bound- * less|love and|mer- * cy,|he the|ran- som|free- * ly|gave.|I will|praise _ my|dear Re-|
w: death * to|life has|brought _ me,|Son of|God, with|him * to|be.|Sing, O|sing * of|my Re-|
 (B2 A2) G2 ||"^Page 2" A4 A2 | (A2 B2) c2 | (c2 B2) A2 | G6 | %24
w: deem- * er!|With his|blood _ he|pur- * chased|me;|
w: deem- * er,|his tri-|um- * phant|power _ I'll|tell:|
w: deem- * er!|With his|blood * he|pur- * chased|me;|
 (c2 A2)"^I Will Sing of My Redeemer" c2 | (B2 G2) B2 | (A2 F2) A2 | GA BA G2 | c4 c2 | %29
w: on * the|cross * he|sealed _ my|par- * * * don,|paid the|
w: how * the|vic- * to-|ry * he|gives * * * me|o- ver|
w: on * the|cross * he|sealed _ my|par- * * * don,|paid the|
 (d2 c2) B2 | A4 G2 | F6 |] %32
w: debt, * and|made me|free.|
w: sin * and|death and|hell.|
w: debt, * and|made me|free.|
V:2
 C4 E2 | F4 F2 | (D2 G2) F2 | (E2 D2) E2 | (F2 C2) DE | (F2 E2) D2 | D4 E2 | F6 | A,4 C2 | C4 F2 | %10
 (D2 G2) F2 | (E2 D2) E2 | (F2 C2) DE |1 F4 E2 | D4 E2 | F6 | E4 E2 | F4 F2 | (F2 E2) D2 | E4 E2 || %20
 F4 F2 | (F2 G2) A2 | (A2 G2) F2 | (F4 E2) | F4 E2 | G4 G2 | (F2 C2) C2 | C4 C2 | (C2 F2) E2 | %29
 (D2 F2) F2 | F4 E2 | F6 |] %32
V:3
 x6 | x6 | x6 | x6 | x6 | x6 | x6 | x6 | x6 | x6 | x6 | x6 | x6 |1 x6 | x6 | x6 | x6 | x6 | x6 | %19
 x6 || x6 | x6 | x6 | x6 | C,6- | C,6- | C,6- | x6 | x6 | x6 | x6 | x6 |] %32
V:4
 A,4 G,2 | (A,3 B,) C2 | (G,2 C2) C2 | (C2 A,2) C2 | (C2 A,2) B,2 | C4 A,2 | (B,2 A,2) C2 | A,6 | %8
 F,4 G,2 | (A,3 B,) C2 | (G,2 C2) C2 | (C2 A,2) C2 | (C2 A,2) B,2 |1 C4 C2 | (B,2 A,2) C2 | A,6 | %16
 A,4 A,2 | (F,2 G,2) A,2 | G,4 G,2 | (G,2 A,2) B,2 || (A,2 C2) C2 | D4 C2 | D4 D2 | G,6 | %24
 (A,2 C2) C2 | D4 C2 | (C2 A,2) F,2 | E,F, G,F, E,2 | (F,2 A,2) C2 | (B,2 C2) D2 | C4 B,2 | A,6 |] %32
V:5
 F,4 C,2 | F,4 F,2 | (F,2 E,2) F,2 | (C,2 D,2) C,2 | (A,,2 A,2) G,2 | F,4 F,2 | D,4 C,2 | F,6 | %8
 (F,,2 A,,2) C,2 | F,4 F,2 | (F,2 E,2) F,2 | (C,2 D,2) C,2 | (A,,2 A,2) G,2 |1 F,4 A,,2 | %14
 (B,,2 D,2) C,2 | F,6 | A,4 A,2 | D,4 D,2 | G,4 G,2 | C,4 C,2 || F,4 E,2 | (D,2 B,,2) A,,2 | %22
 G,,4 B,,2 | C,6 | (A,2 F,2) A,2 | (G,3 F,) E,2 | F,4 A,,2 | C,4 C,B,, | A,,4 A,,2 | %29
 (B,,2 A,,2) B,,2 | C,4 C,2 | F,6 |] %32

